X:219
T: Der Reiter und seine Geliebte (3-22), S. 75
N: P0994
O: Lothringen
S: PINCK, Louis: Verklingende Weisen, Bd3, Metz 1933]
R: Verfhrung, Standesunterschied, Beischlaf, Tod]
M: 3/8
L: 1/16
K: G
GA | _B2d2B2 | d2d2d2 | d2c2_B2 | A4
_B2 | c2c2dd | _B2B2B2 | A2A2GG | d4
D2 | G2G2AA | _B2d2c2 | _B2B2AA | G4

@@@ Tune index: 7769
